src/main/resources/icons/AllIcons/actions/annotate.svg

<svg xmlns="http://www.w3.org/2000/svg" width="16" height="16" viewBox="0 0 16 16"><rect id="frame" width="16" height="16" fill="none"/><path fill="#6E6E6E" fill-rule="evenodd" d="M3 6h5V1h5v14H3V6zm4-5v4H3l4-4zM5 8v1h6V8H5zm0 2v1h6v-1H5zm0 2v1h6v-1H5z"/></svg>

<!-- Copyright 2000-2021 JetBrains s.r.o. Use of this source code is governed by the Apache 2.0 license that can be found in the LICENSE file. -->
<svg xmlns="http://www.w3.org/2000/svg" width="16" height="16" viewBox="0 0 16 16">
  <path fill="#6E6E6E" fill-rule="evenodd" d="M3,6 L8,6 L8,1 L13,1 L13,15 L3,15 L3,6 Z M7,1 L7,5 L3,5 L7,1 Z M5,8 L5,9 L11,9 L11,8 L5,8 Z M5,10 L5,11 L11,11 L11,10 L5,10 Z M5,12 L5,13 L11,13 L11,12 L5,12 Z"/>
</svg>
